X:2460
T:Caminito del puertu (MQ 016)
R:Tonada
C:Tradicional
S:Música Tradicional Asturiana, (C) Tello & Tito. Asturies, 2001.
S:http://pagina.de/MusTradAst <telloytito@asturies.org>
N:Pertenece a uno de los estilos de tonada que se acompañan con gaita.
N:Es de las que nosotros llamamos de "subir y bajar".
N:Cuando el cantante hace la parte baja el gaitero le acompaña por arriba y cuando el cantante pasa a la octava superior el gaitero le acompaña por abajo.
A:Asturies
Z:Manolo Quirós 016
M:3/4
L:1/8
Q:1/4=60
K:Bb
G/
|G3 A BA|{BA}G G2-G2 G|G3 A (3B/c/B/ A/G/|G G3 G ^F/G/|A{AB}A/^G/D4-|D4-D/A/=B/c/|
d d/c/ =B4-|=B4-B/A/B/c/|d{de}d/c/ =B4-|=B-B/4c/4B/4A/4 GG c>A|=B B/A/G4-|G6|


